X:39
T:Saxons Hornpipe. JBu.39
O:England,South Yorkshire
S:Joshua Burnett’s MS,c1835,S.Yorkshire
M:4/4
L:1/8
Q:1/2=90
R:.hornpipe
Z:vmp.R.Greig.2011
K:D
AF”No time or key sig in MS”|D2d2d2cd|ecec d2de|fdfd gege|agag d2dc|
A2d2d2cd|ececd2cd|ecAc dBAG|A2A2A2:|
|:fg|agfe dcBA|B2G2G2ga|bagf gfed|c2A2A2ef|
afaf bgbg|afaf bgbg|afdf gece|d2d2d2:|

